X:1
T:Title
%%score { ( 1 3 ) | ( 2 4 ) }
L:1/8
M:4/4
K:G
V:1 treble nm="Grand Piano"
V:3 treble 
V:2 bass 
V:4 bass 
V:1
 z4 z2[Q:1/4=100] D2 | G2 G2 G2 G2 | B3 A G2 G2 | [FA]2 [FA]2 [FA]2 [GB]2 | %4
 [Ac]3 [GB] [FA]2 [FA]2 | B2 B2 B2 [Ac]2 | [Bd]3 [Ac] [GB]2 [GB]2 | [EA]2 [EB]2 [Ec]2 [A,EA]2 | %8
 [B,DG]4 [A,DF]4 |[M:3/4] [B,DG]6 |[M:1/4] D2 |[M:4/4] G6 z2 | B6 z2 | [Fc]2 z2 z4 | %14
 [DFA]6 [B,D]2 | D2- [DA]2 B2 G2 | A2 B2 [Ec]2 [A,EA]2 | [B,DG]4 [CDA]4 |[M:3/4] [B,DG]6 |] %19
V:2
 z4 z2 [G,B,]2 | [G,B,D]2 [G,B,D]2 [G,B,D]2 [G,B,D]2 | [G,D]3 [G,CD] [G,B,D]2 [G,B,D]2 | %3
 [D,D]2 [D,D]2 [D,D]2 [D,D]2 | [D,D]3 [D,C] [D,D]2 [D,D]2 | [G,DG]2 [G,DG]2 [G,DG]2 [G,D]2 | %6
 [G,D]3[K:bass] [G,D] [G,D]2 [G,D]2 | [C,A,]2 [B,,^G,]2 [B,,A,]2 C,2 | D,4 D,4 |[M:3/4] G,,6 | %10
[M:1/4] B,2 |[M:4/4] B,6 z2 | D6 z2 | A,2 G,2 F,2 E,2 | D,6 G,2 | z2 C2 [G,D]2 [G,B,D]2 | %16
 [C,A,]2 [B,,^G,]2 [A,,A,]2 C,2 | D,4 D,4 |[M:3/4] G,,6 |] %19
V:3
 x8 | x8 | x8 | x8 | x8 | x8 | x8 | x8 | x8 |[M:3/4] x6 |[M:1/4] x2 |[M:4/4] z2 D2 D2 G2 | %12
 z2 G2 G2 [DGB]2 | D2- [DGB]2 [DA]2 [^CG]2 | x8 | [B,G]2 z2 z4 | E4 z4 | x8 |[M:3/4] x6 |] %19
V:4
 x8 | x8 | x8 | x8 | x8 | x8 | x3[K:bass] x5 | x8 | x8 |[M:3/4] x6 |[M:1/4] x2 | %11
[M:4/4] z2 G,2 G,2 B,2 | z2 G,2 G,2 G,2 | x8 | x8 | G,4 z4 | x8 | x8 |[M:3/4] x6 |] %19

